src/assets/images/landing/sobal_diagonal.svg

<svg width="471" height="360" viewBox="0 0 471 360" fill="none" xmlns="http://www.w3.org/2000/svg">
<path d="M354.781 -45.5175L357.295 -36.1341C341.022 -41.1126 323.119 -41.7431 305.454 -37.0099C279.964 -30.1797 259.726 -13.5825 247.689 7.68167L178.088 130.733C171.762 142.007 160.995 150.718 147.579 154.313C120.971 161.443 93.6635 145.692 86.5398 119.106C79.416 92.5199 95.2639 65.206 121.798 58.0962C135.289 54.4814 148.914 56.7369 160.009 63.2624L182.503 76.5513L204.339 37.895L182.621 25.1166C161.565 12.7197 135.74 8.46485 110.25 15.295C92.5851 20.0283 77.4699 29.506 65.7922 41.9738L47.2544 -27.2102L0 -14.5484L62.4378 218.473L109.692 205.811L107.178 196.428C123.525 201.386 141.449 202.091 159.039 197.378C184.529 190.547 204.747 173.876 216.803 152.686L286.345 29.4109C292.671 18.1377 303.438 9.42602 316.854 5.83118C343.462 -1.29859 370.769 14.4519 377.893 41.0382C385.017 67.6245 369.264 94.9929 342.655 102.123C329.164 105.737 315.519 103.408 304.423 96.8821L282.024 83.6477L260.189 122.304L281.832 135.102C302.888 147.499 328.713 151.754 354.203 144.924C371.868 140.191 387.057 130.693 398.641 118.171L401.155 127.554L448.484 114.872L402.11 -58.1993L354.781 -45.5175Z" fill="#1A161D"/>
<path d="M392.019 93.4578L394.519 102.789C378.259 97.859 360.363 97.2569 342.699 101.99C317.208 108.82 296.955 125.359 284.893 146.529L215.146 269.037C208.807 280.26 198.032 288.942 184.616 292.536C158.007 299.666 130.732 284.036 123.648 257.598C116.564 231.16 132.444 203.967 158.979 196.857C172.469 193.242 186.087 195.467 197.168 201.943L219.635 215.131L241.517 176.646L219.825 163.964C198.794 151.661 172.985 147.465 147.494 154.295C129.83 159.028 114.707 168.478 103.016 180.897L84.582 112.099L37.3275 124.761L99.4166 356.48L146.671 343.819L144.171 334.488C160.505 339.397 178.421 340.074 196.011 335.36C221.501 328.53 241.734 311.917 253.816 290.821L323.504 168.091C329.843 156.868 340.618 148.187 354.034 144.592C380.643 137.462 407.918 153.092 415.002 179.53C422.086 205.968 406.3 233.216 379.691 240.345C366.201 243.96 352.563 241.661 341.481 235.186L319.109 222.051L297.228 260.537L318.845 273.238C339.876 285.541 365.685 289.738 391.175 282.907C408.84 278.174 424.037 268.705 435.634 256.232L438.134 265.563L485.463 252.881L439.348 80.776L392.019 93.4578Z" fill="#1A161D"/>
<path d="M429.081 231.775L431.595 241.158C415.323 236.18 397.419 235.549 379.755 240.282C354.264 247.113 334.026 263.71 321.99 284.974L252.389 408.026C246.063 419.299 235.296 428.011 221.88 431.605C195.271 438.735 167.964 422.985 160.84 396.398C153.716 369.812 169.564 342.498 196.098 335.388C209.589 331.774 223.215 334.029 234.31 340.555L256.803 353.843L278.639 315.187L256.922 302.409C235.865 290.012 210.041 285.757 184.55 292.587C166.885 297.32 151.77 306.798 140.093 319.266L121.555 250.082L74.3003 262.744L136.738 495.765L183.993 483.103L181.478 473.72C197.825 478.678 215.749 479.383 233.339 474.67C258.83 467.84 279.047 451.168 291.104 429.978L360.645 306.703C366.971 295.43 377.738 286.718 391.154 283.123C417.763 275.994 445.07 291.744 452.193 318.33C459.317 344.917 443.564 372.285 416.955 379.415C403.465 383.03 389.819 380.7 378.724 374.174L356.325 360.94L334.489 399.596L356.132 412.394C377.188 424.791 403.013 429.046 428.504 422.216C446.168 417.483 461.358 407.985 472.941 395.463L475.455 404.846L522.784 392.164L476.41 219.093L429.081 231.775Z" fill="#1A161D"/>
</svg>

<svg xmlns="http://www.w3.org/2000/svg" width="471" height="360" fill="none"><g fill="#1a161d"><path d="m354.781-45.517 2.514 9.383c-16.273-4.979-34.176-5.61-51.841-.876-25.49 6.83-45.728 23.428-57.765 44.692l-69.601 123.051c-6.326 11.274-17.093 19.985-30.509 23.58-26.608 7.13-53.915-8.621-61.04-35.207-7.123-26.586 8.725-53.9 35.259-61.01 13.491-3.615 27.116-1.36 38.211 5.166l22.494 13.29 21.836-38.657-21.718-12.778C161.565 12.72 135.74 8.465 110.25 15.295c-17.665 4.733-32.78 14.211-44.458 26.679L47.254-27.21 0-14.548l62.438 233.021 47.254-12.662-2.514-9.383c16.347 4.958 34.271 5.663 51.861.95 25.49-6.831 45.708-23.502 57.764-44.692l69.542-123.275c6.326-11.273 17.093-19.985 30.509-23.58 26.608-7.13 53.915 8.62 61.039 35.207s-8.629 53.955-35.238 61.085c-13.491 3.614-27.136 1.285-38.232-5.24l-22.399-13.235-21.835 38.656 21.643 12.798c21.056 12.397 46.881 16.652 72.371 9.822 17.665-4.733 32.854-14.231 44.438-26.753l2.514 9.383 47.329-12.682L402.11-58.199z"/><path d="m392.019 93.458 2.5 9.331c-16.26-4.93-34.156-5.532-51.82-.799-25.491 6.83-45.744 23.369-57.806 44.539l-69.747 122.508c-6.339 11.223-17.114 19.905-30.53 23.499-26.609 7.13-53.884-8.5-60.968-34.938s8.796-53.631 35.331-60.741c13.49-3.615 27.108-1.39 38.189 5.086l22.467 13.188 21.882-38.485-21.692-12.682c-21.031-12.303-46.84-16.499-72.331-9.669-17.664 4.733-32.787 14.183-44.478 26.602l-18.434-68.798-47.255 12.662 62.09 231.719 47.254-12.661-2.5-9.331c16.334 4.909 34.25 5.586 51.84.872 25.49-6.83 45.723-23.443 57.805-44.539l69.688-122.73c6.339-11.223 17.114-19.904 30.53-23.499 26.609-7.13 53.884 8.5 60.968 34.938s-8.702 53.686-35.311 60.815c-13.49 3.615-27.128 1.316-38.21-5.159l-22.372-13.135-21.881 38.486 21.617 12.701c21.031 12.303 46.84 16.5 72.33 9.669 17.665-4.733 32.862-14.202 44.459-26.675l2.5 9.331 47.329-12.682-46.115-172.105z"/><path d="m429.081 231.775 2.514 9.383c-16.272-4.978-34.176-5.609-51.84-.876-25.491 6.831-45.729 23.428-57.765 44.692l-69.601 123.052c-6.326 11.273-17.093 19.985-30.509 23.579-26.609 7.13-53.916-8.62-61.04-35.207-7.124-26.586 8.724-53.9 35.258-61.01 13.491-3.614 27.117-1.359 38.212 5.167l22.493 13.288 21.836-38.656-21.717-12.778c-21.057-12.397-46.881-16.652-72.372-9.822-17.665 4.733-32.78 14.211-44.457 26.679l-18.538-69.184L74.3 262.744l62.438 233.021 47.255-12.662-2.515-9.383c16.347 4.958 34.271 5.663 51.861.95 25.491-6.83 45.708-23.502 57.765-44.692l69.541-123.275c6.326-11.273 17.093-19.985 30.509-23.58 26.609-7.129 53.916 8.621 61.039 35.207 7.124 26.587-8.629 53.955-35.238 61.085-13.49 3.615-27.136 1.285-38.231-5.241l-22.399-13.234-21.836 38.656 21.643 12.798c21.056 12.397 46.881 16.652 72.372 9.822 17.664-4.733 32.854-14.231 44.437-26.753l2.514 9.383 47.329-12.682-46.374-173.071z"/></g></svg>
